assets/icons/icon_attachment.svg

<svg width="30" height="30" viewBox="0 0 30 30" fill="none" xmlns="http://www.w3.org/2000/svg">
<path d="M15.0331 26.5C11.6975 26.5 6 25.8536 6 23.4347C6 22.6163 6.64226 21.9438 7.90607 21.4277C8.09224 21.3542 8.29977 21.3579 8.48323 21.438C8.66669 21.5181 8.81115 21.6681 8.88501 21.8552C8.95735 22.0435 8.95401 22.2527 8.8757 22.4386C8.79738 22.6244 8.65025 22.7723 8.46546 22.8509C7.62638 23.1949 7.50207 23.4608 7.50207 23.466C7.70925 23.9456 10.4855 24.9674 15.0331 24.9674C19.5808 24.9674 22.3259 23.956 22.5642 23.4034C22.2826 23.1584 21.9575 22.9691 21.606 22.8456C21.4287 22.7639 21.2894 22.6168 21.2167 22.4348C21.144 22.2527 21.1435 22.0496 21.2152 21.8671C21.2869 21.6847 21.4254 21.5368 21.6022 21.4541C21.779 21.3714 21.9805 21.3601 22.1654 21.4225C23.4292 21.9438 24.0714 22.6111 24.0714 23.4295C24.0714 25.8484 18.3739 26.4948 15.0331 26.4948" fill="white"/>
<path d="M10.8585 23.393H10.7756C10.6765 23.382 10.5806 23.3514 10.4933 23.3029C10.406 23.2545 10.3291 23.1891 10.267 23.1106C10.2049 23.0321 10.1588 22.9421 10.1315 22.8456C10.1041 22.7491 10.0959 22.6482 10.1074 22.5485L11.9203 5.55916C11.9742 4.99726 12.2334 4.47551 12.6478 4.09506C13.0622 3.71461 13.6021 3.50255 14.163 3.5L15.8982 3.5C16.4638 3.50077 17.0085 3.71566 17.424 4.10197C17.8395 4.48828 18.0954 5.01776 18.1409 5.58522L19.8502 22.5694C19.8604 22.6683 19.8511 22.7683 19.8229 22.8636C19.7947 22.9589 19.7482 23.0477 19.6859 23.1249C19.6236 23.2021 19.5468 23.2662 19.4599 23.3136C19.373 23.3609 19.2777 23.3906 19.1794 23.4008C19.0811 23.4111 18.9818 23.4018 18.8871 23.3734C18.7924 23.3451 18.7041 23.2982 18.6274 23.2355C18.5507 23.1728 18.487 23.0955 18.44 23.0081C18.3929 22.9206 18.3635 22.8247 18.3533 22.7257L16.644 5.72076C16.6272 5.53315 16.5415 5.3586 16.4035 5.23132C16.2655 5.10403 16.0853 5.03318 15.8982 5.03264H14.163C13.977 5.03421 13.7981 5.10474 13.6605 5.23072C13.5229 5.35671 13.4363 5.52932 13.4172 5.71555L11.6043 22.7101C11.5852 22.8963 11.4986 23.069 11.361 23.1949C11.2234 23.3209 11.0445 23.3914 10.8585 23.393Z" fill="white"/>
</svg>

<svg xmlns="http://www.w3.org/2000/svg" width="30" height="30" fill="none" viewBox="0 0 30 30"><path fill="#fff" d="M15.033 26.5C11.698 26.5 6 25.854 6 23.435c0-.819.642-1.491 1.906-2.007a.75.75 0 0 1 .979.427.78.78 0 0 1-.42.996c-.839.344-.963.61-.963.615.207.48 2.984 1.501 7.531 1.501 4.548 0 7.293-1.011 7.531-1.564a3 3 0 0 0-.958-.557.764.764 0 0 1-.39-.979.764.764 0 0 1 .95-.445c1.263.522 1.905 1.19 1.905 2.008 0 2.418-5.697 3.065-9.038 3.065"/><path fill="#fff" d="M10.859 23.393h-.083a.75.75 0 0 1-.644-.547.8.8 0 0 1-.025-.297l1.813-16.99a2.28 2.28 0 0 1 .728-1.464c.414-.38.954-.592 1.515-.595h1.735c.566 0 1.11.216 1.526.602s.671.916.717 1.483l1.71 16.984a.76.76 0 0 1-.391.745.75.75 0 0 1-1.02-.306.8.8 0 0 1-.087-.282L16.644 5.72a.76.76 0 0 0-.746-.688h-1.735a.754.754 0 0 0-.746.683L11.604 22.71a.763.763 0 0 1-.745.683"/></svg>
